src/assets/icons/icon_comment.svg

<svg width="16" height="16" viewBox="0 0 16 16" fill="none" xmlns="http://www.w3.org/2000/svg">
<path d="M9.7334 2.66602C11.2268 2.66602 11.9735 2.66639 12.5439 2.95703C13.0456 3.21268 13.4533 3.6204 13.709 4.12207C13.9996 4.69249 14 5.43919 14 6.93262V7.73242C14 9.22578 13.9996 9.97255 13.709 10.543C13.4533 11.0447 13.0457 11.4533 12.5439 11.709C11.9735 11.9996 11.2267 11.999 9.7334 11.999H4.94336C4.76655 11.999 4.5967 12.0693 4.47168 12.1943L3.1377 13.5283C2.71769 13.9477 2.00008 13.6503 2 13.0566V6.93262C2 5.43919 2.00037 4.69249 2.29102 4.12207C2.54666 3.6204 2.95439 3.21268 3.45605 2.95703C4.02648 2.66639 4.77317 2.66602 6.2666 2.66602H9.7334ZM6 8C5.63181 8 5.33301 8.2988 5.33301 8.66699C5.33318 9.03503 5.63192 9.33301 6 9.33301H8L8.13477 9.31934C8.43821 9.25701 8.66684 8.98884 8.66699 8.66699C8.66699 8.34497 8.43835 8.076 8.13477 8.01367L8 8H6ZM6 5.33301C5.63181 5.33301 5.33301 5.63181 5.33301 6C5.33301 6.36819 5.63181 6.66699 6 6.66699H10L10.1348 6.65332C10.4384 6.59102 10.667 6.32204 10.667 6C10.667 5.67796 10.4384 5.40898 10.1348 5.34668L10 5.33301H6Z" fill="#64748B"/>
</svg>

<svg xmlns="http://www.w3.org/2000/svg" fill="none" viewBox="0 0 16 16"><path fill="#64748b" d="M9.733 2.666c1.494 0 2.24 0 2.81.291.503.256.91.663 1.166 1.165.29.57.291 1.317.291 2.81v.8c0 1.494 0 2.24-.291 2.811-.256.502-.663.91-1.165 1.166-.57.29-1.317.29-2.81.29h-4.79a.67.67 0 0 0-.472.195l-1.334 1.334A.667.667 0 0 1 2 13.057V6.933c0-1.494 0-2.24.291-2.81.256-.503.663-.91 1.165-1.166.57-.29 1.317-.291 2.81-.291zM6 8a.667.667 0 0 0 0 1.333h2l.135-.014a.667.667 0 0 0 0-1.305L8 8zm0-2.667a.667.667 0 0 0 0 1.334h4l.135-.014a.667.667 0 0 0 0-1.306L10 5.333z"/></svg>
